X:311
T: Chenjunzhang, qingnin hebei nuomijiu
N: C1809
O: China, Jiangsu Rudong
S: III, 458]
R: Xiaodiao, Wuge, Huagu diao]
M: 2/4
L: 1/16
K: Bb
GFGBc3d | GFGBc4 |
ffggfddB | c2fdc4 |
dfcdf2f2 | fgdcB2B2 |
ffGFBzcG | F8 |
ffGFBzcg | f8- | f8

